X:170
T: ES WAREN LUSTIGE GESELLEN
N: E1305C
O: Europa, Mitteleuropa, Deutschland
R: Staende -, Soldaten - Lied, Reiter
M: 2/4
L: 1/16
K: G
D2 | G4F2E2 | D3GG2B2 | A4G2z2 | A4G2
D2 | G4F2E2 | D3GG2B2 | A4G2z2 | A4G2
d2 | B2B2B2B2 | B4B2
d2 | e2d2c2B2 | A4z2
G2 | F2A2A2A2 | d6
c2 | B2B2A2A2 | G4z2

@@@ Tune index: 4854
